static/assets/img/icons/theme/media/airplay-video.svg

<svg height="24" viewBox="0 0 24 24" width="24" xmlns="http://www.w3.org/2000/svg"><g fill="none" fill-rule="evenodd"><path d="m0 0h24v24h-24z" opacity="0"/><g fill="#000"><path d="m7 15c.55228475 0 1 .4477153 1 1s-.44771525 1-1 1h-1c-1.65685425 0-3-1.3431458-3-3v-7c0-1.65685425 1.34314575-3 3-3h12c1.6568542 0 3 1.34314575 3 3v7c0 1.6568542-1.3431458 3-3 3h-1c-.5522847 0-1-.4477153-1-1s.4477153-1 1-1h1c.5522847 0 1-.4477153 1-1v-7c0-.55228475-.4477153-1-1-1h-12c-.55228475 0-1 .44771525-1 1v7c0 .5522847.44771525 1 1 1z" fill-rule="nonzero"/><path d="m8 20h8l-4-5z" opacity=".3"/></g></g></svg>

<svg width="24px" height="24px" viewBox="0 0 24 24" version="1.1" xmlns="http://www.w3.org/2000/svg" xmlns:xlink="http://www.w3.org/1999/xlink">
    <title>Icon For Airplay-video</title>
    <g stroke="none" stroke-width="1" fill="none" fill-rule="evenodd">
        <rect opacity="0" x="0" y="0" width="24" height="24"></rect>
        <path d="M7,15 C7.55228475,15 8,15.4477153 8,16 C8,16.5522847 7.55228475,17 7,17 L6,17 C4.34314575,17 3,15.6568542 3,14 L3,7 C3,5.34314575 4.34314575,4 6,4 L18,4 C19.6568542,4 21,5.34314575 21,7 L21,14 C21,15.6568542 19.6568542,17 18,17 L17,17 C16.4477153,17 16,16.5522847 16,16 C16,15.4477153 16.4477153,15 17,15 L18,15 C18.5522847,15 19,14.5522847 19,14 L19,7 C19,6.44771525 18.5522847,6 18,6 L6,6 C5.44771525,6 5,6.44771525 5,7 L5,14 C5,14.5522847 5.44771525,15 6,15 L7,15 Z" fill="#000000" fill-rule="nonzero"></path>
        <polygon fill="#000000" opacity="0.3" points="8 20 16 20 12 15"></polygon>
    </g>
</svg>
